lib/brands/icons/blackberry.svg

<svg xmlns="http://www.w3.org/2000/svg" fill="none" aria-hidden="true" viewBox="0 0 48 48"><g id="blackberry-Icon"><path id="bg" fill="#1D1D1D" d="M45 24C45 35.592 35.6025 45 24 45C12.3975 45 3 35.592 3 24C3 12.3975 12.3975 3 24 3C35.6025 3 45 12.3975 45 24Z"/><g id="blackberry"><path fill="white" d="M13.4322 12L11.9661 18H17.0072C18.3527 18 19.5255 17.0631 19.8518 15.7276C20.3145 13.8342 18.9148 12 17.0072 12H13.4322Z"/><path fill="white" d="M11.9661 21L10.5 27H15.5411C16.8866 27 18.0594 26.0631 18.3857 24.7276C18.8484 22.8342 17.4487 21 15.5411 21H11.9661Z"/><path fill="white" d="M20.7626 27L22.2287 21H25.8037C27.7113 21 29.111 22.8342 28.6484 24.7276C28.322 26.0631 27.1492 27 25.8037 27H20.7626Z"/><path fill="white" d="M20.7626 30L19.2966 36H24.3376C25.6831 36 26.8559 35.0631 27.1823 33.7276C27.6449 31.8342 26.2452 30 24.3376 30H20.7626Z"/><path fill="white" d="M34.6003 33H29.5592L31.0253 27H34.6003C36.5079 27 37.9076 28.8342 37.4449 30.7276C37.1186 32.0631 35.9458 33 34.6003 33Z"/><path fill="white" d="M32.4914 18L31.0253 24H36.0664C37.4119 24 38.5847 23.0631 38.911 21.7276C39.3737 19.8342 37.974 18 36.0664 18H32.4914Z"/><path fill="white" d="M22.2287 18L23.6948 12H27.2698C29.1774 12 30.5771 13.8342 30.1145 15.7276C29.7881 17.0631 28.6153 18 27.2698 18H22.2287Z"/></g></g></svg>

<svg xmlns="http://www.w3.org/2000/svg" fill="none" aria-hidden="true" viewBox="0 0 48 48"><path fill="#1D1D1D" d="M45 24c0 11.592-9.398 21-21 21S3 35.592 3 24C3 12.398 12.398 3 24 3s21 9.398 21 21Z"/><path fill="#fff" d="m13.432 12-1.466 6h5.041c1.346 0 2.518-.937 2.845-2.272.462-1.894-.937-3.728-2.845-3.728h-3.575Zm-1.466 9L10.5 27h5.041c1.346 0 2.518-.937 2.845-2.272.462-1.894-.937-3.728-2.845-3.728h-3.575Zm8.797 6 1.466-6h3.575c1.907 0 3.307 1.834 2.844 3.728C28.322 26.063 27.15 27 25.804 27h-5.041Zm0 3-1.466 6h5.04c1.346 0 2.519-.937 2.845-2.272.463-1.894-.937-3.728-2.844-3.728h-3.575ZM34.6 33h-5.04l1.465-6H34.6c1.908 0 3.308 1.834 2.845 3.728C37.119 32.063 35.945 33 34.6 33Zm-2.109-15-1.466 6h5.041c1.346 0 2.519-.937 2.845-2.272.463-1.894-.937-3.728-2.845-3.728h-3.575Zm-10.262 0 1.466-6h3.575c1.907 0 3.307 1.834 2.845 3.728-.327 1.335-1.5 2.272-2.845 2.272h-5.041Z"/></svg>
